www/assets/icons/flash_auto.svg

<svg xmlns="http://www.w3.org/2000/svg" width="24" height="24" viewBox="0 0 24 24" fill='currentColor'><path d="M2.4 1.5v12h3v9l7-12h-4l4-9zm16 0h-2l-3.2 9h1.9l.7-2H19l.7 2h1.9zm-2.15 5.65L17.4 3.5l1.15 3.65z"/></svg>

<svg width="24" height="24" viewBox="0 0 24 24" xmlns="http://www.w3.org/2000/svg" fill='currentColor'><path d="M2.40002 1.5V13.5H5.40002V22.5L12.4 10.5H8.40002L12.4 1.5H2.40002ZM18.4 1.5H16.4L13.2 10.5H15.1L15.8 8.5H19L19.7 10.5H21.6L18.4 1.5ZM16.25 7.15L17.4 3.5L18.55 7.15H16.25Z"/></svg>
